X:4
T:Flatworld
R:waltz
C:Andy Cutting
D:Blowzabella, _Vanilla_
M:3/4
K:Am
ede | ceBeAe | F2 ABcA | f3 edc | B3 ede |
ceBeAe | F2 fedc | B3 dcB | A3 ede |
ceBeAe | F2 ABcA | f3 edc | B3 ede |
ceBeAe | F2 fedc | B3 dcB | A6 |
ABc Aag | f3 edc | Bcd Ggf | e3 dcB |
ABc Ffe | d3 cBA | B2 Bd^cd | B3 dcB |
ABc Aag | f3 edc | Bcd Ggf | e3 dcB |
ABc Ffe | d3 cBA | B2 BdcB | A6 ||
